assets/Lotus/Flat/lotus_flat.svg

<svg width="32" height="32" viewBox="0 0 32 32" fill="none" xmlns="http://www.w3.org/2000/svg">
<path d="M17.6877 6.95167H14.3156C14.3156 3.77479 10.719 1.91183 8.07448 3.71132C4.39458 6.21854 1.98405 10.4237 2.00008 15.1842C2.02572 22.8583 8.38861 29.0724 16.1363 28.9994C23.807 28.9264 30 22.7503 30 15.1366C30 10.3793 27.5799 6.18363 23.8935 3.6891C21.2618 1.90548 17.6877 3.79384 17.6877 6.95167Z" fill="#008463"/>
<path fill-rule="evenodd" clip-rule="evenodd" d="M20.3804 6.17065C21.045 7.75006 21.1132 9.43149 20.6872 10.9637C22.2265 10.506 23.926 10.5496 25.5284 11.2032C25.9067 11.3539 26.0862 11.7834 25.9323 12.1585C25.2898 13.7338 24.1606 14.9647 22.7892 15.7478C24.17 16.5157 25.3135 17.7345 25.9739 19.3038C26.131 19.6788 25.9579 20.1084 25.5828 20.2654C24.0147 20.9254 22.3465 20.9972 20.8235 20.5813C21.2554 22.0986 21.2018 23.7659 20.5599 25.3396C20.4092 25.7179 19.9797 25.8974 19.6047 25.7435C18.0295 25.101 16.7987 23.972 16.0155 22.6008C15.2477 23.9815 14.0289 25.1249 12.4597 25.7853C12.0878 25.9424 11.6551 25.7661 11.498 25.3942C10.838 23.826 10.7662 22.1571 11.1823 20.6336C9.66406 21.0665 7.99537 21.0134 6.42043 20.371C6.04539 20.2171 5.86588 19.7876 6.01654 19.4157C6.65942 17.8396 7.78942 16.6083 9.16173 15.8252C7.78138 15.0577 6.63833 13.8397 5.97811 12.2708C5.82104 11.8958 5.99734 11.4662 6.36918 11.3092C7.93772 10.6491 9.6063 10.5773 11.1296 10.9936C10.6966 9.47538 10.7498 7.80663 11.3922 6.23164C11.546 5.85339 11.9724 5.67388 12.3474 5.82775C13.8966 6.45963 15.1126 7.5621 15.8974 8.90271C16.667 7.54948 17.8728 6.43014 19.4187 5.77958C19.7937 5.62251 20.2233 5.79561 20.3804 6.17065ZM15.9567 15.7734C15.9713 15.7783 15.9861 15.7828 16.001 15.7867C16.0011 15.7868 16.001 15.7867 16.001 15.7867L15.9941 15.8043L15.9755 15.8121L15.9582 15.8051L15.9509 15.7877L15.9567 15.7734Z" fill="#F70A8D"/>
<path d="M15.3734 15.5116C12.0621 12.2003 12.0621 6.82791 15.3734 3.51663C15.7068 3.18326 16.2453 3.18326 16.5755 3.51663C19.8867 6.82791 19.8867 12.2003 16.5755 15.5116C16.2453 15.845 15.7068 15.845 15.3734 15.5116Z" fill="#FF6DC6"/>
<path d="M15.3734 28.058C12.0621 24.7467 12.0621 19.3743 15.3734 16.063C15.7068 15.7296 16.2453 15.7296 16.5755 16.063C19.8867 19.3743 19.8867 24.7467 16.5755 28.058C16.2453 28.3914 15.7068 28.3914 15.3734 28.058Z" fill="#FF6DC6"/>
<path d="M15.3542 16.018C10.6709 16.018 6.87244 12.2195 6.87244 7.53624C6.87244 7.06504 7.25389 6.68358 7.72189 6.68679C12.4051 6.68679 16.2036 10.4853 16.2036 15.1685C16.2036 15.6365 15.8254 16.018 15.3542 16.018Z" fill="#F837A2"/>
<path d="M24.227 24.891C19.5438 24.891 15.7452 21.0925 15.7452 16.4093C15.7452 15.9381 16.1267 15.5566 16.5947 15.5598C21.2779 15.5598 25.0764 19.3583 25.0764 24.0416C25.0764 24.5096 24.6982 24.891 24.227 24.891Z" fill="#F837A2"/>
<path d="M15.7004 16.3899C12.3891 19.7011 7.01669 19.7011 3.70541 16.3899C3.37204 16.0565 3.37204 15.518 3.70541 15.1878C7.01669 11.8765 12.3891 11.8765 15.7004 15.1878C16.0337 15.518 16.0337 16.0565 15.7004 16.3899Z" fill="#FF6DC6"/>
<path d="M28.2466 16.3899C24.9354 19.7011 19.5662 19.7011 16.2517 16.3899C15.9183 16.0565 15.9183 15.518 16.2517 15.1878C19.563 11.8765 24.9354 11.8765 28.2466 15.1878C28.58 15.518 28.58 16.0565 28.2466 16.3899Z" fill="#FF6DC6"/>
<path d="M25.0059 7.49472C25.0059 12.1779 21.2074 15.9765 16.5242 15.9765C16.053 15.9765 15.6715 15.595 15.6747 15.127C15.6747 10.4438 19.4732 6.64526 24.1564 6.64526C24.6244 6.64526 25.0059 7.02351 25.0059 7.49472Z" fill="#F837A2"/>
<path d="M16.2068 16.409C16.2068 21.0923 12.4083 24.8908 7.7251 24.8908C7.25389 24.8908 6.87244 24.5093 6.87244 24.0381C6.87244 19.3549 10.6709 15.5564 15.3574 15.5596C15.8254 15.5596 16.2068 15.9378 16.2068 16.409Z" fill="#F837A2"/>
<path d="M15.9761 19.2782C17.904 19.2782 19.4668 17.7153 19.4668 15.7874C19.4668 13.8595 17.904 12.2966 15.9761 12.2966C14.0482 12.2966 12.4853 13.8595 12.4853 15.7874C12.4853 17.7153 14.0482 19.2782 15.9761 19.2782Z" fill="#F9C23C"/>
</svg>

<svg xmlns="http://www.w3.org/2000/svg" width="32" height="32" fill="none"><path fill="#008463" d="M17.688 6.952h-3.372c0-3.177-3.597-5.04-6.242-3.24C4.394 6.218 1.984 10.423 2 15.183 2.026 22.858 8.39 29.072 16.136 29 23.807 28.926 30 22.75 30 15.137c0-4.758-2.42-8.953-6.107-11.448-2.631-1.784-6.205.105-6.205 3.263Z"/><path fill="#F70A8D" fill-rule="evenodd" d="M20.38 6.17c.665 1.58.733 3.261.307 4.794a7.281 7.281 0 0 1 4.841.24.73.73 0 0 1 .404.954 7.288 7.288 0 0 1-3.143 3.59 7.289 7.289 0 0 1 3.185 3.556.732.732 0 0 1-.391.961 7.282 7.282 0 0 1-4.76.316 7.28 7.28 0 0 1-.263 4.759.73.73 0 0 1-.955.404 7.289 7.289 0 0 1-3.59-3.143 7.289 7.289 0 0 1-3.555 3.184.736.736 0 0 1-.962-.39 7.285 7.285 0 0 1-.316-4.761 7.28 7.28 0 0 1-4.762-.263.737.737 0 0 1-.403-.955 7.288 7.288 0 0 1 3.145-3.59 7.285 7.285 0 0 1-3.184-3.555.735.735 0 0 1 .391-.962 7.282 7.282 0 0 1 4.76-.315 7.28 7.28 0 0 1 .263-4.762.73.73 0 0 1 .955-.404 7.288 7.288 0 0 1 3.55 3.075A7.288 7.288 0 0 1 19.42 5.78a.733.733 0 0 1 .961.39Zm-4.423 9.603.044.014-.007.017-.018.008-.018-.007-.007-.017.006-.015Z" clip-rule="evenodd"/><path fill="#FF6DC6" d="M15.373 15.512a8.484 8.484 0 0 1 0-11.995.847.847 0 0 1 1.203 0 8.484 8.484 0 0 1 0 11.995.847.847 0 0 1-1.203 0Z"/><path fill="#FF6DC6" d="M15.373 28.058a8.484 8.484 0 0 1 0-11.995.847.847 0 0 1 1.203 0 8.484 8.484 0 0 1 0 11.995.847.847 0 0 1-1.203 0Z"/><path fill="#F837A2" d="M15.354 16.018a8.483 8.483 0 0 1-8.482-8.482c0-.471.382-.852.85-.85a8.483 8.483 0 0 1 8.482 8.482c0 .469-.379.85-.85.85Z"/><path fill="#F837A2" d="M24.227 24.891a8.483 8.483 0 0 1-8.482-8.482c0-.47.382-.852.85-.85a8.483 8.483 0 0 1 8.481 8.483c0 .468-.378.849-.849.849Z"/><path fill="#FF6DC6" d="M15.7 16.39a8.484 8.484 0 0 1-11.995 0 .847.847 0 0 1 0-1.202 8.484 8.484 0 0 1 11.995 0 .848.848 0 0 1 0 1.202Z"/><path fill="#FF6DC6" d="M28.247 16.39c-3.312 3.311-8.68 3.311-11.995 0a.847.847 0 0 1 0-1.202 8.483 8.483 0 0 1 11.995 0 .847.847 0 0 1 0 1.202Z"/><path fill="#F837A2" d="M25.006 7.495a8.483 8.483 0 0 1-8.482 8.482.847.847 0 0 1-.85-.85 8.483 8.483 0 0 1 8.482-8.482c.468 0 .85.379.85.85Z"/><path fill="#F837A2" d="M16.207 16.409a8.483 8.483 0 0 1-8.482 8.482.852.852 0 0 1-.853-.853 8.479 8.479 0 0 1 8.485-8.478c.468 0 .85.378.85.849Z"/><path fill="#F9C23C" d="M15.976 19.278a3.49 3.49 0 1 0 0-6.981 3.49 3.49 0 0 0 0 6.981Z"/></svg>
